public/assets/icons/like.svg

<svg width="18" height="16" viewBox="0 0 18 16" fill="none" xmlns="http://www.w3.org/2000/svg">
<path fill-rule="evenodd" clip-rule="evenodd" d="M3.66225 1.61569C2.27333 2.26398 1.25581 3.80596 1.25581 5.64473C1.25581 7.52328 2.00865 8.97125 3.08787 10.2122C3.97735 11.2349 5.0541 12.0826 6.1042 12.9092C6.35361 13.1056 6.60152 13.3007 6.84506 13.4968C7.28546 13.8513 7.67832 14.1624 8.05698 14.3884C8.43584 14.6144 8.7408 14.7177 9 14.7177C9.2592 14.7177 9.56416 14.6144 9.94302 14.3884C10.3217 14.1624 10.7145 13.8513 11.1549 13.4968C11.3985 13.3007 11.6464 13.1056 11.8958 12.9092C12.9459 12.0825 14.0226 11.2349 14.9121 10.2122C15.9914 8.97125 16.7442 7.52328 16.7442 5.64473C16.7442 3.80596 15.7267 2.26398 14.3377 1.61569C12.9884 0.985873 11.1754 1.15266 9.4524 2.98057C9.33403 3.10615 9.17069 3.1771 9 3.1771C8.82931 3.1771 8.66597 3.10615 8.5476 2.98057C6.82465 1.15266 5.01159 0.985873 3.66225 1.61569ZM9 1.64529C7.06433 -0.123128 4.8968 -0.370511 3.14017 0.449413C1.28488 1.31539 0 3.3262 0 5.64473C0 7.92348 0.929718 9.66185 2.14888 11.0637C3.1252 12.1863 4.32019 13.1258 5.37557 13.9556C5.61482 14.1437 5.84688 14.3261 6.06761 14.5038C6.49645 14.849 6.95683 15.2172 7.42339 15.4955C7.88974 15.7738 8.42199 16 9 16C9.57801 16 10.1103 15.7738 10.5766 15.4955C11.0432 15.2171 11.5035 14.849 11.9324 14.5038C12.1531 14.3261 12.3852 14.1437 12.6244 13.9556C13.6798 13.1258 14.8748 12.1863 15.8511 11.0637C17.0703 9.66185 18 7.92348 18 5.64473C18 3.3262 16.7151 1.31539 14.8598 0.449413C13.1032 -0.370511 10.9357 -0.123128 9 1.64529Z" fill="#877EFF"/>
</svg>

<?xml version="1.0"?>
<svg width="18" height="16" xmlns="http://www.w3.org/2000/svg" xmlns:svg="http://www.w3.org/2000/svg">
 <g class="layer">
  <title>Layer 1</title>
  <path clip-rule="evenodd" d="m3.66,1.62c-1.39,0.64 -2.4,2.19 -2.4,4.02c0,1.88 0.75,3.33 1.83,4.57c0.89,1.02 1.96,1.87 3.01,2.7c0.25,0.2 0.5,0.39 0.75,0.59c0.44,0.35 0.83,0.66 1.21,0.89c0.38,0.22 0.68,0.33 0.94,0.33c0.26,0 0.56,-0.11 0.94,-0.33c0.38,-0.23 0.77,-0.54 1.21,-0.89c0.25,-0.2 0.5,-0.39 0.75,-0.59c1.05,-0.83 2.12,-1.68 3.01,-2.7c1.08,-1.24 1.83,-2.69 1.83,-4.57c0,-1.83 -1.01,-3.38 -2.4,-4.02c-1.35,-0.63 -3.16,-0.47 -4.89,1.36c-0.12,0.13 -0.28,0.2 -0.45,0.2c-0.17,0 -0.33,-0.07 -0.45,-0.2c-1.73,-1.83 -3.54,-1.99 -4.89,-1.36zm5.34,0.03c-1.94,-1.77 -4.1,-2.02 -5.86,-1.2c-1.86,0.87 -3.14,2.88 -3.14,5.19c0,2.28 0.93,4.02 2.15,5.42c0.98,1.13 2.17,2.07 3.23,2.9c0.23,0.18 0.47,0.37 0.69,0.54c0.43,0.35 0.89,0.72 1.35,1c0.47,0.27 1,0.5 1.58,0.5c0.58,0 1.11,-0.23 1.58,-0.5c0.46,-0.28 0.92,-0.65 1.35,-1c0.22,-0.17 0.46,-0.36 0.69,-0.54c1.06,-0.83 2.25,-1.77 3.23,-2.9c1.22,-1.4 2.15,-3.14 2.15,-5.42c0,-2.31 -1.28,-4.32 -3.14,-5.19c-1.76,-0.82 -3.92,-0.57 -5.86,1.2z" fill="#ff0000" fill-rule="evenodd" id="svg_1"/>
 </g>
</svg>
